resources/svg/text-document-alt-o.svg

<svg xmlns="http://www.w3.org/2000/svg" viewBox="0 0 15 15" fill="none"><path d="M4.5 6.99542H4V7.99542H4.5V6.99542ZM10.5 7.99542H11V6.99542H10.5V7.99542ZM4.5 10H4V11H4.5V10ZM10.5 11H11V10H10.5V11ZM4.5 3.99738H4V4.99738H4.5V3.99738ZM10.5 4.99738H11V3.99738H10.5V4.99738ZM13.5 3.5H14V3.29289L13.8536 3.14645L13.5 3.5ZM10.5 0.5L10.8536 0.146447L10.7071 0H10.5V0.5ZM4.5 7.99542H10.5V6.99542H4.5V7.99542ZM4.5 11H10.5V10H4.5V11ZM4.5 4.99738H10.5V3.99738H4.5V4.99738ZM12.5 14H2.5V15H12.5V14ZM2 13.5V1.5H1V13.5H2ZM13 3.5V13.5H14V3.5H13ZM2.5 1H10.5V0H2.5V1ZM10.1464 0.853553L13.1464 3.85355L13.8536 3.14645L10.8536 0.146447L10.1464 0.853553ZM2.5 14C2.22386 14 2 13.7761 2 13.5H1C1 14.3284 1.67157 15 2.5 15V14ZM12.5 15C13.3284 15 14 14.3284 14 13.5H13C13 13.7761 12.7761 14 12.5 14V15ZM2 1.5C2 1.22386 2.22386 1 2.5 1V0C1.67157 0 1 0.671574 1 1.5H2Z" fill="black"/></svg>

<svg xmlns="http://www.w3.org/2000/svg" viewBox="0 0 15 15" fill="none"><path d="M4.5 6.995H4v1h.5v-1zm6 1h.5v-1h-.5v1zM4.5 10H4v1h.5v-1zm6 1h.5v-1h-.5v1zm-6-7.003H4v1h.5v-1zm6 1h.5v-1h-.5v1zm3-1.497h.5v-.207l-.146-.147-.354.354zm-3-3l.354-.354L10.707 0H10.5v.5zm-6 7.495h6v-1h-6v1zM4.5 11h6v-1h-6v1zm0-6.003h6v-1h-6v1zm8 9.003h-10v1h10v-1zM2 13.5v-12H1v12h1zm11-10v10h1v-10h-1zM2.5 1h8V0h-8v1zm7.646-.146l3 3 .708-.708-3-3-.708.708zM2.5 14a.5.5 0 01-.5-.5H1A1.5 1.5 0 002.5 15v-1zm10 1a1.5 1.5 0 001.5-1.5h-1a.5.5 0 01-.5.5v1zM2 1.5a.5.5 0 01.5-.5V0A1.5 1.5 0 001 1.5h1z" fill="currentColor"/></svg>
